X:245
T: Tom Connors'
T: Port Taim U\'i Chonch\'uir
S: B.Breathnach: "Ceol Rince na hEireann" II/57
Z: B.Black
L: 1/8
M: 6/8
R: jig
K: D
ABA A2D|FAd f2d|e2f ede|gfe dcB|
ABA A2D|FAd f2d|efe gfe|1 d3 d3 :|2 d3 d2||
a|: FAA dcd|ecA A2D|FAA dcd|ecA A2e|
fg/a/f gfg|B2e dcB|ABA GFE|D3 D3 :|

